X:360
T:Jacob Hall's Jig
M:6/8
L:1/8
S:Colin Hume's website,  colinhume.com  - chords can also be printed below the stave.
Q:3/8=110
C:Henry Playford, 1695
N:This is the original tune.  Cecil Sharp used "Under and Over", and also got the "A" part of the dance wrong.
K:Dm
P:A
|: "Dm"a2d (d3/c/4d/4)e | "A"^c3 A2A | "Bb"d2c "C"c2B | "F"A3 F2A |\
"Gm"G2G "A7"GAE | "Dm"F2G "C"E2C | "Bb"D2E E2D |1 "A"^C3 A,3 :|2 "A"^C3 A,2e |
P:B
"C"e2f f2e | "Bb"dec B2A | "F"A2G "C/E"G2F | "Dm"F3 f>ef |\
"A7"g2e ^c>^de | "Dm"f2e "E7"d>c=B | "A"(^c3/=B/4c/4)d "E7"=B2A | "A"A3- A2a |
"Gm"b2g "C7"e>fg | "Dm"a>ba "C"g>fe | "Bb"f2f (g3/f/4g/4)a | "Gm"b3 g>fg |\
"A7"a2e ^c>de | "E7"f2e "A7"^c>=BA | "Dm"(f3/e/4f/4)g "A7"e2d | "Dm"d3- d2 |]

